X:1
T:The Sweet Old Story
T:The Sweet Old Story
T:Adam Geibel
T:Irvin H. Mack, 1894
T:Public Domain Courtesy of the Cyber Hymnal™
T:Public Domain Courtesy of the Cyber Hymnal™
C:Adam Geibel
Z:Public Domain
Z:Courtesy of the Cyber Hymnal™
%%score ( 1 2 ) ( 3 4 )
L:1/8
Q:1/4=88
M:6/8
K:G
V:1 treble 
V:2 treble 
V:3 bass 
V:4 bass 
V:1
"^Duet for soprano & tenor" [DB]>[CA][B,G] [Ec]2 [_EG] | [DB]3 [B,G]2 [B,G]/[B,G]/ | %2
w: 1.~Tell me a- bout the|Mas- ter! I am|
w: 2.~Tell me a- bout the|Mas- ter! Of the|
w: 3.~Yet what I know of|sor- row And temp-|
 [CA]>[B,^G][CA] [Fd]2 [Ec] | [DB]4 z [B,D] | [DB]2 [CA]/[B,G]/ [Ec][EG][_EA] | [DB]3 [B,G]2 [DB] | %6
w: wea- ry and worn to-|night; The|day lies be- hind me in|sha- dow, And|
w: wrongs He for us for-|gave; Of|love and of ten- der co-|pas- sion, Of|
w: ta- tions that oft be-|fall, The|in- fi- nite Mas- ter had|suf- fered, And|
 [FA]>[EG][DF] [^CA][CG][CE] | D3- D2 z ||"^Quartet" [FA]>[^E^G][FA] [Fc][FB][FA] | %9
w: on- ly the ev- ening is|light! *|Light with a ra- di- ant|
w: love, that was might- y to|save; *|Sad is my heart, and so|
w: know- eth and pi- ti- eth|all. *|Tell me the sweet- est old|
 (G2 e) [Gd]2 [Ad] | [^Gd]>[Gc][GB] (dc)[GB] | [Ac]4 [Ac][Ac] | [Ac]>[Ac][Ac] [Fe][Gd][Dc] | %13
w: glo- * ry That|lin- gers a- bout * the|west, My poor|heart is a- wea- ry, a-|
w: wea- * ry, Of|woes and the tri- * als|of life, Of|the wrongs that are stalk- ing|
w: sto- * ry That|falls on each wound * like|balm, And my|heart that was bruis- èd and|
 (B2 A) !fermata![^CG]2 [^A,C] | [B,D][Gd][Gc]"^rit." [FB]2 [FA] | [DG]3- [DG]2 z |] %16
w: wea- * ry, And|longs like a child for|rest. *|
w: in * noon- day,|Of false- hood, and sin,|and *|
w: bro- * ken Shall|grow well, and strong, and|calm. *|
V:2
 x6 | x6 | x6 | x6 | x6 | x6 | x6 | D3- D2 x || x6 | G3 x3 | x3 ^G2 x | x6 | x6 | D3 x3 | x6 | %15
 x6 |] %16
V:3
 z D,G, z G,G, | z (D,G,) z (D,G,) | z D,D, z D,D, | (G,,B,,D,G,D,)B,, | z D,G, z G,G, | %5
 z (D,G,) (z D,)G, | z A,A, z A,G, | ([D,F,]A,,F,, D,,2) z || [D,C]>[D,B,][D,C] [D,E][D,D][D,C] | %9
 (B,2 ^A,) [G,B,]2 [=F,B,] | [E,B,]>[E,C][E,D] (DC)[E,D] | [A,E]4 [A,E][G,_E] | %12
 [F,D]>[F,D][F,D] [D,C][E,B,][F,A,] | (A,2 B,) !fermata![_E,_C]2 [E,G,] | %14
 [D,G,][D,B,][D,E] [D,D]2 [D,C] | [G,,B,]3- [G,,B,]2 z |] %16
V:4
 G,,3 G,,3 | G,,3 G,,3 | D,,3 D,,3 | x6 | G,,3 G,,3 | G,,3 G,,3 | A,,3 A,,3 | x6 || x6 | G,3 x3 | %10
 x3 E,2 x | x6 | x6 | G,3 x3 | x6 | x6 |] %16

